priv/static/svgs/icons_new/sport-lacrosse.svg

<svg width="32" height="32" viewBox="0 0 32 32" fill="none" xmlns="http://www.w3.org/2000/svg">
<path d="M20.9687 23.8132L19.2612 25.3047M5.86518 14.0521C6.42671 14.8853 7.21744 15.5022 8.15144 15.8363C9.98694 16.4928 11.5378 17.4711 12.7531 18.7526C13.4747 19.5138 14.6633 19.5877 15.4922 18.9449C16.3301 18.2952 16.5418 17.1136 15.9718 16.2195C15.0484 14.7713 14.4852 13.0205 14.3536 11.1358C14.2897 10.22 13.9571 9.35082 13.3915 8.62139M22 28.5L19 25L17 22.5C15 23.5 13.748 22.5509 12.8166 21.3814C12.7456 21.2927 12.6799 21.2021 12.6181 21.1082C11.4392 19.3142 9.64385 18.0402 7.62147 17.3183C6.42073 16.8885 5.33842 16.0861 4.5599 14.9309C2.83887 12.3802 3.27388 8.89209 5.56721 6.84172C8.28478 4.41135 12.4395 4.82731 14.6339 7.65715C15.4171 8.66721 15.8406 9.84122 15.9226 11.0254C16.0678 13.0901 16.8045 15.0988 18.251 16.579C18.3471 16.677 18.4397 16.7823 18.5265 16.8942C19.4694 18.1101 19.5179 19.7364 18.7725 20.9806L23.7895 27M9.08256 7.89248L8.78365 10.2556M8.78365 10.2556L8.47255 12.7139M8.78365 10.2556L11.2418 10.5666M8.78365 10.2556L6.41864 9.95647M8.47255 12.7139L8.27357 14.2883L8.27425 14.2892M8.47255 12.7139L10.9317 13.0258M8.47255 12.7139L6.42719 12.4562M10.6207 15.4843L10.9317 13.0258M10.9317 13.0258L11.2418 10.5666M10.9317 13.0258L13.3829 13.3993M11.2418 10.5666L11.5014 8.52317M11.2418 10.5666L12.8161 10.7658M24.6142 8.54637C26.4146 8.77411 27.6896 10.4183 27.4618 12.2187C27.2341 14.0191 25.5899 15.2941 23.7895 15.0663C21.9891 14.8386 20.7141 13.1944 20.9419 11.394C21.1696 9.59356 22.8138 8.31864 24.6142 8.54637Z" stroke="black" stroke-linecap="round"/>
</svg>

<svg width="32" height="32" viewBox="0 0 32 32" fill="none" xmlns="http://www.w3.org/2000/svg">
  <symbol id="item" viewBox="0 0 32 32" stroke-width="1" fill="none">
    <path d="m20.969 23.813-1.708 1.492M5.865 14.052a4.62 4.62 0 0 0 2.286 1.784c1.836.657 3.387 1.635 4.602 2.917.722.76 1.91.835 2.74.192a2.054 2.054 0 0 0 .479-2.726c-.924-1.448-1.487-3.199-1.618-5.083a4.615 4.615 0 0 0-.962-2.515M22 28.5 19 25l-2-2.5c-2 1-3.252.05-4.183-1.119a3.622 3.622 0 0 1-.199-.273c-1.179-1.794-2.974-3.068-4.997-3.79a6.194 6.194 0 0 1-3.061-2.387c-1.721-2.55-1.286-6.039 1.007-8.09a6.217 6.217 0 0 1 10.356 4.184c.145 2.065.882 4.074 2.328 5.554a3.62 3.62 0 0 1 .521 4.402L23.79 27M9.082 7.892l-.3 2.364m0 0-.31 2.458m.31-2.458 2.459.31m-2.458-.31-2.365-.3m2.054 2.758-.2 1.574.001.001m.199-1.575 2.459.312m-2.46-.312-2.045-.258m4.194 3.028.31-2.458m0 0 .31-2.46m-.31 2.46 2.452.373m-2.141-2.832.26-2.044m-.26 2.044 1.574.199m11.798-2.22a3.286 3.286 0 1 1-.825 6.52 3.286 3.286 0 0 1 .825-6.52Z" stroke="currentColor" stroke-linecap="round"/>
  </symbol>
</svg>
